Sources/com.elgato.pisamples.sdPlugin/action/images/action.svg

<svg xmlns="http://www.w3.org/2000/svg" width="144" height="144" viewBox="0 0 144 144"><defs><linearGradient id="linearGradient-1" x1="0%" x2="99.133%" y1="0%" y2="99.133%"><stop offset="0%" stop-color="#142DB3"/><stop offset="100%" stop-color="#1C40FF"/></linearGradient></defs><g id="action" fill="none" fill-rule="evenodd" stroke="none" stroke-width="1"><rect id="Rectangle" width="144" height="144" x="0" y="0" fill="url(#linearGradient-1)"/><g id="actionImage" fill="#EFEFEF"><text id="PI-SAMPLES" font-family="UniversLTPro-UltCond, Univers LT Pro" font-size="46.8" font-style="condensed" font-weight="normal">
                <tspan x="58.9" y="48.4">PI</tspan>
                <tspan x="7" y="88">SAMPLES</tspan>
            </text><path id="2" fill-rule="nonzero" d="M59.652,104.4 C56.052,104.4 54.504,105.444 54.504,109.368 L54.504,111.276 L57.816,111.276 L57.816,109.8 C57.816,107.928 58.284,107.028 59.436,107.028 C60.876,107.028 61.416,107.82 61.416,110.232 C61.416,113.976 60.516,114.948 57.816,120.24 C56.52,122.76 55.224,124.992 54,127.152 L54,130.644 L65.088,130.644 L65.088,127.548 L57.636,127.548 L61.596,120.168 C64.008,115.668 64.8,114.876 64.8,110.34 C64.8,106.38 63.828,104.4 59.652,104.4 Z M67.572,126.36 L67.572,130.644 L71.712,130.644 L71.712,126.36 L67.572,126.36 Z M85.032,110.196 C85.032,105.84 83.412,104.472 79.776,104.472 C76.032,104.472 74.376,105.84 74.376,110.16 L74.376,124.992 C74.376,128.52 75.204,130.896 79.524,130.896 C84.096,130.896 85.032,128.7 85.032,125.208 L85.032,110.196 Z M79.74,107.208 C81.072,107.208 81.648,107.928 81.648,109.8 L81.648,125.388 C81.648,127.152 81.036,128.196 79.632,128.196 C78.228,128.196 77.76,127.116 77.76,125.424 L77.76,110.196 C77.76,107.928 78.552,107.208 79.74,107.208 Z"/><path id="icon" fill-rule="nonzero" d="M60.6978,20.2104 L60.6978,54 L65.3778,54 L65.3778,39.258 L69.2154,39.258 C75.2058,39.258 76.0014,36.2628 76.0014,29.9448 C76.0014,23.2524 75.5802,20.2104 68.7474,20.2104 L60.6978,20.2104 Z M65.3778,24.1416 L68.2326,24.1416 C70.947,24.1416 71.3682,24.8436 71.3682,29.2428 C71.3682,34.9992 71.181,35.3268 67.8114,35.3268 L65.3778,35.3268 L65.3778,24.1416 Z M78.7626,20.2104 L78.7626,54 L83.3958,54 L83.3958,20.2104 L78.7626,20.2104 Z M15.7698,59.5764 C10.9026,59.5764 8.2818,62.1972 8.2818,67.2984 C8.2818,72.1188 10.3878,74.412 14.8338,78.9516 C17.6418,81.8064 18.6246,83.4444 18.6246,86.112 C18.6246,88.7796 17.8758,90.1368 15.6294,90.1368 C13.617,90.1368 12.7746,89.0604 12.7746,86.2524 L12.7746,83.8188 L8.235,83.8188 L8.235,87.8904 C8.235,91.6812 10.9494,93.9276 15.255,93.9276 C20.5434,93.9276 23.0706,91.4472 23.0706,85.5972 C23.0706,80.9172 21.7134,79.3728 16.9398,74.3184 C13.7574,70.9488 12.8214,69.4044 12.8214,66.8772 C12.8214,64.4436 13.6638,63.2268 15.6762,63.2268 C17.0802,63.2268 18.297,63.7416 18.297,66.5496 L18.297,68.8896 L22.6962,68.8896 L22.6962,65.8476 C22.6962,61.9632 20.2626,59.5764 15.7698,59.5764 Z M32.2902,59.8104 L24.8022,93.6 L29.529,93.6 L31.1202,84.8952 L38.187,84.8952 L39.9186,93.6 L44.5986,93.6 L37.6722,59.8104 L32.2902,59.8104 Z M34.7706,64.7712 L37.5318,81.1044 L31.869,81.1044 L34.7706,64.7712 Z M46.845,59.8104 L46.845,93.6 L51.0102,93.6 L51.0102,63.2268 L56.2986,93.6 L60.9786,93.6 L65.9862,63.2268 L65.9862,93.6 L70.2918,93.6 L70.2918,59.8104 L63.0846,59.8104 L58.7322,85.5504 L54.333,59.8104 L46.845,59.8104 Z M73.7082,59.8104 L73.7082,93.6 L78.3882,93.6 L78.3882,78.858 L82.2258,78.858 C88.2162,78.858 89.0118,75.8628 89.0118,69.5448 C89.0118,62.8524 88.5906,59.8104 81.7578,59.8104 L73.7082,59.8104 Z M78.3882,63.7416 L81.243,63.7416 C83.9574,63.7416 84.3786,64.4436 84.3786,68.8428 C84.3786,74.5992 84.1914,74.9268 80.8218,74.9268 L78.3882,74.9268 L78.3882,63.7416 Z M91.9134,59.8104 L91.9134,93.6 L104.4558,93.6 L104.4558,89.6688 L96.6402,89.6688 L96.6402,59.8104 L91.9134,59.8104 Z M106.6554,59.8104 L106.6554,93.6 L119.3382,93.6 L119.3382,89.6688 L111.3354,89.6688 L111.3354,78.2496 L118.8234,78.2496 L118.8234,74.3184 L111.3354,74.3184 L111.3354,63.7416 L119.3382,63.7416 L119.3382,59.8104 L106.6554,59.8104 Z M128.4174,59.5764 C123.5502,59.5764 120.9294,62.1972 120.9294,67.2984 C120.9294,72.1188 123.0354,74.412 127.4814,78.9516 C130.2894,81.8064 131.2722,83.4444 131.2722,86.112 C131.2722,88.7796 130.5234,90.1368 128.277,90.1368 C126.2646,90.1368 125.4222,89.0604 125.4222,86.2524 L125.4222,83.8188 L120.8826,83.8188 L120.8826,87.8904 C120.8826,91.6812 123.597,93.9276 127.9026,93.9276 C133.191,93.9276 135.7182,91.4472 135.7182,85.5972 C135.7182,80.9172 134.361,79.3728 129.5874,74.3184 C126.405,70.9488 125.469,69.4044 125.469,66.8772 C125.469,64.4436 126.3114,63.2268 128.3238,63.2268 C129.7278,63.2268 130.9446,63.7416 130.9446,66.5496 L130.9446,68.8896 L135.3438,68.8896 L135.3438,65.8476 C135.3438,61.9632 132.9102,59.5764 128.4174,59.5764 Z"/></g></g></svg>

<svg xmlns="http://www.w3.org/2000/svg" width="144" height="144"><defs><linearGradient id="a" x1="0%" x2="100%" y1="0%" y2="100%"><stop offset="0%" stop-color="#142DB3"/><stop offset="100%" stop-color="#1C40FF"/></linearGradient></defs><path fill="url(#a)" d="M0 0h144v144H0z"/><path fill="#EFEFEF" d="M59.652 104.4c-3.6 0-5.148 1.044-5.148 4.968v1.908h3.312V109.8c0-1.872.468-2.772 1.62-2.772 1.44 0 1.98.792 1.98 3.204 0 3.744-.9 4.716-3.6 10.008-1.296 2.52-2.592 4.752-3.816 6.912v3.492h11.088v-3.096h-7.452l3.96-7.38c2.412-4.5 3.204-5.292 3.204-9.828 0-3.96-.972-5.94-5.148-5.94Zm7.92 21.96v4.284h4.14v-4.284h-4.14Zm17.46-16.164c0-4.356-1.62-5.724-5.256-5.724-3.744 0-5.4 1.368-5.4 5.688v14.832c0 3.528.828 5.904 5.148 5.904 4.572 0 5.508-2.196 5.508-5.688v-15.012Zm-5.292-2.988c1.332 0 1.908.72 1.908 2.592v15.588c0 1.764-.612 2.808-2.016 2.808s-1.872-1.08-1.872-2.772v-15.228c0-2.268.792-2.988 1.98-2.988ZM60.698 20.21V54h4.68V39.258h3.837c5.99 0 6.786-2.995 6.786-9.313 0-6.693-.42-9.735-7.254-9.735h-8.05Zm4.68 3.932h2.855c2.714 0 3.135.702 3.135 5.1 0 5.757-.187 6.085-3.557 6.085h-2.433V24.142Zm13.385-3.932V54h4.633V20.21h-4.633ZM15.77 59.576c-4.867 0-7.488 2.621-7.488 7.722 0 4.82 2.106 7.114 6.552 11.654 2.808 2.854 3.79 4.492 3.79 7.16s-.748 4.025-2.995 4.025c-2.012 0-2.854-1.077-2.854-3.885V83.82h-4.54v4.071c0 3.791 2.714 6.038 7.02 6.038 5.288 0 7.816-2.48 7.816-8.33 0-4.68-1.358-6.225-6.131-11.28-3.183-3.37-4.119-4.914-4.119-7.44 0-2.434.843-3.651 2.855-3.651 1.404 0 2.621.515 2.621 3.323v2.34h4.4v-3.042c0-3.885-2.434-6.272-6.927-6.272Zm16.52.234L24.802 93.6h4.727l1.591-8.705h7.067l1.732 8.705h4.68l-6.927-33.79H32.29Zm2.48 4.961 2.762 16.333h-5.663l2.902-16.333Zm12.075-4.96V93.6h4.165V63.227L56.3 93.6h4.68l5.007-30.373V93.6h4.306V59.81h-7.207l-4.353 25.74-4.399-25.74h-7.488Zm26.863 0V93.6h4.68V78.858h3.838c5.99 0 6.786-2.995 6.786-9.313 0-6.693-.421-9.735-7.254-9.735h-8.05Zm4.68 3.93h2.855c2.714 0 3.136.703 3.136 5.102 0 5.756-.188 6.084-3.557 6.084h-2.434V63.742Zm13.525-3.93V93.6h12.543v-3.931H96.64V59.81h-4.727Zm14.742 0V93.6h12.683v-3.931h-8.003v-11.42h7.488v-3.93h-7.488V63.741h8.003V59.81h-12.683Zm21.762-.235c-4.867 0-7.488 2.621-7.488 7.722 0 4.82 2.106 7.114 6.552 11.654 2.808 2.854 3.791 4.492 3.791 7.16s-.749 4.025-2.995 4.025c-2.012 0-2.855-1.077-2.855-3.885V83.82h-4.54v4.071c0 3.791 2.715 6.038 7.02 6.038 5.289 0 7.816-2.48 7.816-8.33 0-4.68-1.357-6.225-6.13-11.28-3.183-3.37-4.119-4.914-4.119-7.44 0-2.434.842-3.651 2.855-3.651 1.404 0 2.62.515 2.62 3.323v2.34h4.4v-3.042c0-3.885-2.434-6.272-6.927-6.272Z"/></svg>
